icons/key-24.svg

<svg xmlns="http://www.w3.org/2000/svg" width="24" height="24" viewBox="0 0 24 24"><path d="M16.75 8.5a1.25 1.25 0 100-2.5 1.25 1.25 0 000 2.5z"/><path d="M15.75 0a8.25 8.25 0 11-2.541 16.101l-1.636 1.636a1.744 1.744 0 01-1.237.513H9.25a.25.25 0 00-.25.25v1.448a.876.876 0 01-.256.619l-.214.213a.75.75 0 01-.545.22H5.25a.25.25 0 00-.25.25v1A1.75 1.75 0 013.25 24h-1.5A1.75 1.75 0 010 22.25v-2.836c0-.464.185-.908.513-1.236l7.386-7.388A8.249 8.249 0 0115.75 0zM9 8.25a6.733 6.733 0 00.463 2.462.75.75 0 01-.168.804l-7.722 7.721a.25.25 0 00-.073.177v2.836c0 .138.112.25.25.25h1.5a.25.25 0 00.25-.25v-1c0-.966.784-1.75 1.75-1.75H7.5v-1c0-.966.784-1.75 1.75-1.75h1.086a.25.25 0 00.177-.073l1.971-1.972a.75.75 0 01.804-.168A6.75 6.75 0 109 8.25z"/></svg>

<svg xmlns="http://www.w3.org/2000/svg" width="24" height="24" viewBox="0 0 24 24">
  <defs/>
  <path d="M16.75,8.5 A1.25 1.25 0 1 0 16.75,6 A1.25 1.25 0 0 0 16.75,8.5 Z"/>
  <path d="M15.75,0 C19.006,0.003 21.955,1.919 23.28,4.894 C24.605,7.868 24.056,11.343 21.88,13.764 C19.704,16.186 16.307,17.101 13.209,16.101 L11.573,17.737 C11.246,18.066 10.8,18.25 10.336,18.25 L9.25,18.25 C9.112,18.25 9,18.362 9,18.5 L9,19.948 C9,20.18 8.908,20.403 8.744,20.567 L8.53,20.78 C8.386,20.924 8.189,21.004 7.985,21 L5.25,21 C5.112,21 5,21.112 5,21.25 L5,22.25 C5,23.216 4.216,24 3.25,24 L1.75,24 C0.784,24 0,23.217 0,22.25 L0,19.414 C0,18.95 0.185,18.506 0.513,18.178 L7.899,10.79 C7.086,8.279 7.524,5.53 9.077,3.396 C10.63,1.262 13.111,-0.001 15.75,0 Z M9,8.25 C8.999,9.092 9.156,9.928 9.463,10.712 C9.572,10.99 9.506,11.305 9.295,11.516 L1.573,19.237 C1.526,19.284 1.5,19.348 1.5,19.414 L1.5,22.25 C1.5,22.388 1.612,22.5 1.75,22.5 L3.25,22.5 C3.388,22.5 3.5,22.388 3.5,22.25 L3.5,21.25 C3.5,20.284 4.284,19.5 5.25,19.5 L7.5,19.5 L7.5,18.5 C7.5,17.534 8.284,16.75 9.25,16.75 L10.336,16.75 C10.402,16.75 10.466,16.724 10.513,16.677 L12.484,14.705 C12.695,14.494 13.01,14.428 13.288,14.537 C16.045,15.617 19.184,14.774 21.029,12.458 C22.874,10.143 22.995,6.895 21.326,4.449 C19.658,2.002 16.59,0.929 13.761,1.802 C10.931,2.674 9.001,5.289 9,8.25 Z"/>
</svg>
